X:1
T:Barber of Seville (overture theme)
C:Gioachino Rossini
M:4/4
L:1/8
Q:1/4=152
K:E
E4 E2EE | EFGF E4 | E4 E2EE | GFEG B4 |
B4 B2BB | BcBc B4 | Bcde edcB | AGFE E4 |
E2EE Bcde | e4 E4 |]
